_includes/icons/ios-birthday.svg

<svg fill="#666" height="50" viewBox="0 0 50 50" width="50" xmlns="http://www.w3.org/2000/svg"><path d="m9.84375 0c-.230469.0390625-.441406.164063-.59375.34375 0 0-1.027344 1.199219-2.0625 2.6875s-2.1875 3.144531-2.1875 4.875c0 2.609375 1.960938 4.839844 4.5 5.09375h.09375.8125.09375c2.539063-.253906 4.5-2.484375 4.5-5.09375 0-1.730469-1.152344-3.386719-2.1875-4.875s-2.0625-2.6875-2.0625-2.6875c-.222656-.2617187-.566406-.3945313-.90625-.34375zm15 0c-.230469.0390625-.441406.164063-.59375.34375 0 0-1.027344 1.199219-2.0625 2.6875s-2.1875 3.144531-2.1875 4.875c0 2.609375 1.960938 4.839844 4.5 5.09375h.09375.8125.09375c2.539063-.253906 4.5-2.484375 4.5-5.09375 0-1.730469-1.152344-3.386719-2.1875-4.875s-2.0625-2.6875-2.0625-2.6875c-.222656-.2617187-.566406-.3945313-.90625-.34375zm15 0c-.230469.0390625-.441406.164063-.59375.34375 0 0-1.027344 1.199219-2.0625 2.6875s-2.1875 3.144531-2.1875 4.875c0 2.609375 1.960938 4.839844 4.5 5.09375h.09375.8125.09375c2.539063-.253906 4.5-2.484375 4.5-5.09375 0-1.730469-1.152344-3.386719-2.1875-4.875s-2.0625-2.6875-2.0625-2.6875c-.222656-.2617187-.566406-.3945313-.90625-.34375zm-29.84375 2.625c.371094.453125.597656.683594 1.1875 1.53125.964844 1.386719 1.8125 3.179688 1.8125 3.75 0 1.332031-.867187 2.472656-2 2.90625v-2.8125c.011719-.289062-.105469-.566406-.3125-.761719-.210937-.199218-.496094-.296875-.78125-.269531-.042969.007813-.085937.019531-.125.03125-.464844.105469-.792969.523438-.78125 1v2.8125c-1.132812-.433594-2-1.574219-2-2.90625 0-.570312.847656-2.363281 1.8125-3.75.589844-.847656.816406-1.078125 1.1875-1.53125zm15 0c.371094.453125.597656.683594 1.1875 1.53125.964844 1.386719 1.8125 3.179688 1.8125 3.75 0 1.332031-.867187 2.472656-2 2.90625v-2.8125c.011719-.289062-.105469-.566406-.3125-.761719-.210937-.199218-.496094-.296875-.78125-.269531-.042969.007813-.085937.019531-.125.03125-.464844.105469-.792969.523438-.78125 1v2.8125c-1.132812-.433594-2-1.574219-2-2.90625 0-.570312.847656-2.363281 1.8125-3.75.589844-.847656.816406-1.078125 1.1875-1.53125zm15 0c.371094.453125.597656.683594 1.1875 1.53125.964844 1.386719 1.8125 3.179688 1.8125 3.75 0 1.332031-.867187 2.472656-2 2.90625v-2.8125c.011719-.289062-.105469-.566406-.3125-.761719-.210937-.199218-.496094-.296875-.78125-.269531-.042969.007813-.085937.019531-.125.03125-.464844.105469-.792969.523438-.78125 1v2.8125c-1.132812-.433594-2-1.574219-2-2.90625 0-.570312.847656-2.363281 1.8125-3.75.589844-.847656.816406-1.078125 1.1875-1.53125zm-34.125 10.375c-1.035156.09375-1.875.988281-1.875 2 0 .652344.230469.910156.4375 1.28125s.449219.761719.6875 1.1875c.472656.851563.875 1.796875.875 2.53125v8.25c-2.84375.753906-5 3.210938-5 6.25v3.59375c-.105469.25-.105469.53125 0 .78125v9.125c-.03125 0-.0625 0-.09375 0s-.0625 0-.09375 0c-.550781.050781-.957031.542969-.90625 1.09375.0507812.550781.542969.957031 1.09375.90625h48c.359375.003906.695313-.183594.878906-.496094.179688-.3125.179688-.695312 0-1.007812-.183593-.3125-.519531-.5-.878906-.496094v-9.15625c.058594-.191406.058594-.402344 0-.59375v-3.75c0-2.972656-2.144531-5.484375-5-6.25v-8.75c0-.394531.171875-.851562.40625-1.34375.234375-.492187.59375-.921875.59375-1.75 0-.492187-.085937-1.082031-.5-1.59375-.414062-.511719-1.144531-.8125-1.90625-.8125-2.777344 0-6.125-.96875-6.125-.96875-.039062-.011719-.082031-.023437-.125-.03125-.152344-.023437-.320312-.011719-.46875 0-1.035156.09375-1.875.988281-1.875 2 0 .652344.230469.910156.4375 1.28125s.449219.761719.6875 1.1875c.472656.851563.875 1.796875.875 2.53125v8h-7v-8.5c0-.394531.171875-.851562.40625-1.34375.234375-.492187.59375-.921875.59375-1.75 0-.492187-.085937-1.082031-.5-1.59375-.414062-.511719-1.144531-.8125-1.90625-.8125-2.777344 0-6.125-.96875-6.125-.96875-.039062-.011719-.082031-.023437-.125-.03125-.152344-.023437-.320312-.011719-.46875 0-1.035156.09375-1.875.988281-1.875 2 0 .652344.230469.910156.4375 1.28125s.449219.761719.6875 1.1875c.472656.851563.875 1.796875.875 2.53125v8h-7v-8.5c0-.394531.171875-.851562.40625-1.34375.234375-.492187.59375-.921875.59375-1.75 0-.492187-.085937-1.082031-.5-1.59375-.414062-.511719-1.144531-.8125-1.90625-.8125-2.777344 0-6.125-.96875-6.125-.96875-.039062-.011719-.082031-.023437-.125-.03125-.152344-.023437-.320312-.011719-.46875 0zm.1875 2c.234375.070313 3.425781 1 6.53125 1 .335938 0 .332031.046875.34375.0625s.0625.136719.0625.34375c0-.125-.140625.316406-.40625.875s-.59375 1.3125-.59375 2.21875v8.5h-4v-8c0-1.367187-.597656-2.550781-1.125-3.5-.261719-.472656-.519531-.914062-.6875-1.21875-.0625-.117187-.097656-.203125-.125-.28125zm15 0c.234375.070313 3.425781 1 6.53125 1 .335938 0 .332031.046875.34375.0625s.0625.136719.0625.34375c0-.125-.140625.316406-.40625.875s-.59375 1.3125-.59375 2.21875v8.5h-4v-8c0-1.367187-.597656-2.550781-1.125-3.5-.261719-.472656-.519531-.914062-.6875-1.21875-.0625-.117187-.097656-.203125-.125-.28125zm15 0c.234375.070313 3.425781 1 6.53125 1 .335938 0 .332031.046875.34375.0625s.0625.136719.0625.34375c0-.125-.140625.316406-.40625.875s-.59375 1.3125-.59375 2.21875v8.5h-4v-8c0-1.367187-.597656-2.550781-1.125-3.5-.261719-.472656-.519531-.914062-.6875-1.21875-.0625-.117187-.097656-.203125-.125-.28125zm-28.25 15h34.375c2.679688 0 4.8125 2.078125 4.8125 4.5v3.65625c-.523437.476563-1.253906.84375-2 .84375-1.65625 0-3-1.34375-3-3 0-.03125 0-.0625 0-.09375-.003906-.0625-.015625-.125-.03125-.1875-.007812-.042969-.019531-.085937-.03125-.125-.027344-.054687-.058594-.105469-.09375-.15625-.148437-.230469-.386719-.386719-.65625-.4375-.132812-.027344-.273437-.027344-.40625 0-.191406.042969-.363281.140625-.5.28125-.023437.03125-.042969.0625-.0625.09375-.023437.019531-.042969.039063-.0625.0625v.03125c-.023437.019531-.042969.039063-.0625.0625-.011719.03125-.023437.0625-.03125.09375-.027344.058594-.046875.125-.0625.1875-.003906.042969-.003906.082031 0 .125v.0625c0 1.65625-1.34375 3-3 3s-3-1.34375-3-3c0-.03125 0-.0625 0-.09375-.003906-.0625-.015625-.125-.03125-.1875-.007812-.042969-.019531-.085937-.03125-.125-.019531-.023437-.039062-.042969-.0625-.0625-.007812-.03125-.019531-.0625-.03125-.09375-.0625-.082031-.136719-.15625-.21875-.21875-.046875-.046875-.101562-.089844-.15625-.125-.03125-.011719-.0625-.023437-.09375-.03125-.058594-.027344-.125-.046875-.1875-.0625-.132812-.027344-.273437-.027344-.40625 0-.191406.042969-.363281.140625-.5.28125v.03125c-.046875.039063-.085937.078125-.125.125v.03125c-.023437.019531-.042969.039063-.0625.0625-.027344.058594-.046875.125-.0625.1875-.011719.03125-.023437.0625-.03125.09375v.03125c-.003906.050781-.003906.105469 0 .15625 0 1.65625-1.34375 3-3 3s-3-1.34375-3-3c0-.03125 0-.0625 0-.09375-.003906-.0625-.015625-.125-.03125-.1875-.007812-.042969-.019531-.085937-.03125-.125-.027344-.054687-.058594-.105469-.09375-.15625-.148437-.230469-.386719-.386719-.65625-.4375-.132812-.027344-.273437-.027344-.40625 0-.0625.015625-.128906.035156-.1875.0625-.054687.027344-.105469.058594-.15625.09375-.054687.035156-.109375.078125-.15625.125-.023437.03125-.042969.0625-.0625.09375-.023437.019531-.042969.039063-.0625.0625v.03125c-.074219.105469-.125.21875-.15625.34375-.003906.042969-.003906.082031 0 .125v.0625c0 1.65625-1.34375 3-3 3s-3-1.34375-3-3c0-.03125 0-.0625 0-.09375-.003906-.0625-.015625-.125-.03125-.1875-.007812-.042969-.019531-.085937-.03125-.125-.027344-.054687-.058594-.105469-.09375-.15625-.148437-.230469-.386719-.386719-.65625-.4375-.132812-.027344-.273437-.027344-.40625 0-.191406.042969-.363281.140625-.5.28125-.023437.03125-.042969.0625-.0625.09375-.023437.019531-.042969.039063-.0625.0625v.03125c-.023437.019531-.042969.039063-.0625.0625-.011719.03125-.023437.0625-.03125.09375-.027344.058594-.046875.125-.0625.1875-.003906.042969-.003906.082031 0 .125v.0625c0 1.65625-1.34375 3-3 3s-3-1.34375-3-3c0-.03125 0-.0625 0-.09375s0-.0625 0-.09375c-.011719-.074219-.035156-.148437-.0625-.21875-.019531-.023437-.039062-.042969-.0625-.0625-.023437-.066406-.054687-.128906-.09375-.1875-.019531-.023437-.039062-.042969-.0625-.0625-.03125-.023437-.0625-.042969-.09375-.0625-.199219-.175781-.457031-.265625-.71875-.25-.042969.007813-.085937.019531-.125.03125-.464844.105469-.792969.523438-.78125 1 0 1.65625-1.34375 3-3 3-.808594 0-1.5-.28125-2-.78125v-3.71875c0-2.539062 2.113281-4.5 4.8125-4.5zm1.1875 8.96875c.914063 1.21875 2.371094 2.03125 4 2.03125s3.085938-.8125 4-2.03125c.914063 1.21875 2.371094 2.03125 4 2.03125s3.085938-.8125 4-2.03125c.914063 1.21875 2.371094 2.03125 4 2.03125s3.085938-.8125 4-2.03125c.914063 1.21875 2.371094 2.03125 4 2.03125s3.085938-.8125 4-2.03125c.914063 1.21875 2.371094 2.03125 4 2.03125.71875 0 1.394531-.160156 2-.4375v7.4375h-44v-7.4375c.625.273438 1.292969.4375 2 .4375 1.628906 0 3.085938-.8125 4-2.03125z"/></svg>

<svg xmlns="http://www.w3.org/2000/svg" viewBox="0 0 50 50" width="50" height="50" fill="#666"><path d="M 9.84375 0 C 9.613281 0.0390625 9.402344 0.164063 9.25 0.34375 C 9.25 0.34375 8.222656 1.542969 7.1875 3.03125 C 6.152344 4.519531 5 6.175781 5 7.90625 C 5 10.515625 6.960938 12.746094 9.5 13 C 9.53125 13 9.5625 13 9.59375 13 L 10.40625 13 C 10.4375 13 10.46875 13 10.5 13 C 13.039063 12.746094 15 10.515625 15 7.90625 C 15 6.175781 13.847656 4.519531 12.8125 3.03125 C 11.777344 1.542969 10.75 0.34375 10.75 0.34375 C 10.527344 0.0820313 10.183594 -0.0507813 9.84375 0 Z M 24.84375 0 C 24.613281 0.0390625 24.402344 0.164063 24.25 0.34375 C 24.25 0.34375 23.222656 1.542969 22.1875 3.03125 C 21.152344 4.519531 20 6.175781 20 7.90625 C 20 10.515625 21.960938 12.746094 24.5 13 C 24.53125 13 24.5625 13 24.59375 13 L 25.40625 13 C 25.4375 13 25.46875 13 25.5 13 C 28.039063 12.746094 30 10.515625 30 7.90625 C 30 6.175781 28.847656 4.519531 27.8125 3.03125 C 26.777344 1.542969 25.75 0.34375 25.75 0.34375 C 25.527344 0.0820313 25.183594 -0.0507813 24.84375 0 Z M 39.84375 0 C 39.613281 0.0390625 39.402344 0.164063 39.25 0.34375 C 39.25 0.34375 38.222656 1.542969 37.1875 3.03125 C 36.152344 4.519531 35 6.175781 35 7.90625 C 35 10.515625 36.960938 12.746094 39.5 13 C 39.53125 13 39.5625 13 39.59375 13 L 40.40625 13 C 40.4375 13 40.46875 13 40.5 13 C 43.039063 12.746094 45 10.515625 45 7.90625 C 45 6.175781 43.847656 4.519531 42.8125 3.03125 C 41.777344 1.542969 40.75 0.34375 40.75 0.34375 C 40.527344 0.0820313 40.183594 -0.0507813 39.84375 0 Z M 10 2.625 C 10.371094 3.078125 10.597656 3.308594 11.1875 4.15625 C 12.152344 5.542969 13 7.335938 13 7.90625 C 13 9.238281 12.132813 10.378906 11 10.8125 L 11 8 C 11.011719 7.710938 10.894531 7.433594 10.6875 7.238281 C 10.476563 7.039063 10.191406 6.941406 9.90625 6.96875 C 9.863281 6.976563 9.820313 6.988281 9.78125 7 C 9.316406 7.105469 8.988281 7.523438 9 8 L 9 10.8125 C 7.867188 10.378906 7 9.238281 7 7.90625 C 7 7.335938 7.847656 5.542969 8.8125 4.15625 C 9.402344 3.308594 9.628906 3.078125 10 2.625 Z M 25 2.625 C 25.371094 3.078125 25.597656 3.308594 26.1875 4.15625 C 27.152344 5.542969 28 7.335938 28 7.90625 C 28 9.238281 27.132813 10.378906 26 10.8125 L 26 8 C 26.011719 7.710938 25.894531 7.433594 25.6875 7.238281 C 25.476563 7.039063 25.191406 6.941406 24.90625 6.96875 C 24.863281 6.976563 24.820313 6.988281 24.78125 7 C 24.316406 7.105469 23.988281 7.523438 24 8 L 24 10.8125 C 22.867188 10.378906 22 9.238281 22 7.90625 C 22 7.335938 22.847656 5.542969 23.8125 4.15625 C 24.402344 3.308594 24.628906 3.078125 25 2.625 Z M 40 2.625 C 40.371094 3.078125 40.597656 3.308594 41.1875 4.15625 C 42.152344 5.542969 43 7.335938 43 7.90625 C 43 9.238281 42.132813 10.378906 41 10.8125 L 41 8 C 41.011719 7.710938 40.894531 7.433594 40.6875 7.238281 C 40.476563 7.039063 40.191406 6.941406 39.90625 6.96875 C 39.863281 6.976563 39.820313 6.988281 39.78125 7 C 39.316406 7.105469 38.988281 7.523438 39 8 L 39 10.8125 C 37.867188 10.378906 37 9.238281 37 7.90625 C 37 7.335938 37.847656 5.542969 38.8125 4.15625 C 39.402344 3.308594 39.628906 3.078125 40 2.625 Z M 5.875 13 C 4.839844 13.09375 4 13.988281 4 15 C 4 15.652344 4.230469 15.910156 4.4375 16.28125 C 4.644531 16.652344 4.886719 17.042969 5.125 17.46875 C 5.597656 18.320313 6 19.265625 6 20 L 6 28.25 C 3.15625 29.003906 1 31.460938 1 34.5 L 1 38.09375 C 0.894531 38.34375 0.894531 38.625 1 38.875 L 1 48 C 0.96875 48 0.9375 48 0.90625 48 C 0.875 48 0.84375 48 0.8125 48 C 0.261719 48.050781 -0.144531 48.542969 -0.09375 49.09375 C -0.0429688 49.644531 0.449219 50.050781 1 50 L 49 50 C 49.359375 50.003906 49.695313 49.816406 49.878906 49.503906 C 50.058594 49.191406 50.058594 48.808594 49.878906 48.496094 C 49.695313 48.183594 49.359375 47.996094 49 48 L 49 38.84375 C 49.058594 38.652344 49.058594 38.441406 49 38.25 L 49 34.5 C 49 31.527344 46.855469 29.015625 44 28.25 L 44 19.5 C 44 19.105469 44.171875 18.648438 44.40625 18.15625 C 44.640625 17.664063 45 17.234375 45 16.40625 C 45 15.914063 44.914063 15.324219 44.5 14.8125 C 44.085938 14.300781 43.355469 14 42.59375 14 C 39.816406 14 36.46875 13.03125 36.46875 13.03125 C 36.429688 13.019531 36.386719 13.007813 36.34375 13 C 36.191406 12.976563 36.023438 12.988281 35.875 13 C 34.839844 13.09375 34 13.988281 34 15 C 34 15.652344 34.230469 15.910156 34.4375 16.28125 C 34.644531 16.652344 34.886719 17.042969 35.125 17.46875 C 35.597656 18.320313 36 19.265625 36 20 L 36 28 L 29 28 L 29 19.5 C 29 19.105469 29.171875 18.648438 29.40625 18.15625 C 29.640625 17.664063 30 17.234375 30 16.40625 C 30 15.914063 29.914063 15.324219 29.5 14.8125 C 29.085938 14.300781 28.355469 14 27.59375 14 C 24.816406 14 21.46875 13.03125 21.46875 13.03125 C 21.429688 13.019531 21.386719 13.007813 21.34375 13 C 21.191406 12.976563 21.023438 12.988281 20.875 13 C 19.839844 13.09375 19 13.988281 19 15 C 19 15.652344 19.230469 15.910156 19.4375 16.28125 C 19.644531 16.652344 19.886719 17.042969 20.125 17.46875 C 20.597656 18.320313 21 19.265625 21 20 L 21 28 L 14 28 L 14 19.5 C 14 19.105469 14.171875 18.648438 14.40625 18.15625 C 14.640625 17.664063 15 17.234375 15 16.40625 C 15 15.914063 14.914063 15.324219 14.5 14.8125 C 14.085938 14.300781 13.355469 14 12.59375 14 C 9.816406 14 6.46875 13.03125 6.46875 13.03125 C 6.429688 13.019531 6.386719 13.007813 6.34375 13 C 6.191406 12.976563 6.023438 12.988281 5.875 13 Z M 6.0625 15 C 6.296875 15.070313 9.488281 16 12.59375 16 C 12.929688 16 12.925781 16.046875 12.9375 16.0625 C 12.949219 16.078125 13 16.199219 13 16.40625 C 13 16.28125 12.859375 16.722656 12.59375 17.28125 C 12.328125 17.839844 12 18.59375 12 19.5 L 12 28 L 8 28 L 8 20 C 8 18.632813 7.402344 17.449219 6.875 16.5 C 6.613281 16.027344 6.355469 15.585938 6.1875 15.28125 C 6.125 15.164063 6.089844 15.078125 6.0625 15 Z M 21.0625 15 C 21.296875 15.070313 24.488281 16 27.59375 16 C 27.929688 16 27.925781 16.046875 27.9375 16.0625 C 27.949219 16.078125 28 16.199219 28 16.40625 C 28 16.28125 27.859375 16.722656 27.59375 17.28125 C 27.328125 17.839844 27 18.59375 27 19.5 L 27 28 L 23 28 L 23 20 C 23 18.632813 22.402344 17.449219 21.875 16.5 C 21.613281 16.027344 21.355469 15.585938 21.1875 15.28125 C 21.125 15.164063 21.089844 15.078125 21.0625 15 Z M 36.0625 15 C 36.296875 15.070313 39.488281 16 42.59375 16 C 42.929688 16 42.925781 16.046875 42.9375 16.0625 C 42.949219 16.078125 43 16.199219 43 16.40625 C 43 16.28125 42.859375 16.722656 42.59375 17.28125 C 42.328125 17.839844 42 18.59375 42 19.5 L 42 28 L 38 28 L 38 20 C 38 18.632813 37.402344 17.449219 36.875 16.5 C 36.613281 16.027344 36.355469 15.585938 36.1875 15.28125 C 36.125 15.164063 36.089844 15.078125 36.0625 15 Z M 7.8125 30 L 42.1875 30 C 44.867188 30 47 32.078125 47 34.5 L 47 38.15625 C 46.476563 38.632813 45.746094 39 45 39 C 43.34375 39 42 37.65625 42 36 C 42 35.96875 42 35.9375 42 35.90625 C 41.996094 35.84375 41.984375 35.78125 41.96875 35.71875 C 41.960938 35.675781 41.949219 35.632813 41.9375 35.59375 C 41.910156 35.539063 41.878906 35.488281 41.84375 35.4375 C 41.695313 35.207031 41.457031 35.050781 41.1875 35 C 41.054688 34.972656 40.914063 34.972656 40.78125 35 C 40.589844 35.042969 40.417969 35.140625 40.28125 35.28125 C 40.257813 35.3125 40.238281 35.34375 40.21875 35.375 C 40.195313 35.394531 40.175781 35.414063 40.15625 35.4375 C 40.15625 35.449219 40.15625 35.457031 40.15625 35.46875 C 40.132813 35.488281 40.113281 35.507813 40.09375 35.53125 C 40.082031 35.5625 40.070313 35.59375 40.0625 35.625 C 40.035156 35.683594 40.015625 35.75 40 35.8125 C 39.996094 35.855469 39.996094 35.894531 40 35.9375 C 40 35.957031 40 35.980469 40 36 C 40 37.65625 38.65625 39 37 39 C 35.34375 39 34 37.65625 34 36 C 34 35.96875 34 35.9375 34 35.90625 C 33.996094 35.84375 33.984375 35.78125 33.96875 35.71875 C 33.960938 35.675781 33.949219 35.632813 33.9375 35.59375 C 33.917969 35.570313 33.898438 35.550781 33.875 35.53125 C 33.867188 35.5 33.855469 35.46875 33.84375 35.4375 C 33.78125 35.355469 33.707031 35.28125 33.625 35.21875 C 33.578125 35.171875 33.523438 35.128906 33.46875 35.09375 C 33.4375 35.082031 33.40625 35.070313 33.375 35.0625 C 33.316406 35.035156 33.25 35.015625 33.1875 35 C 33.054688 34.972656 32.914063 34.972656 32.78125 35 C 32.589844 35.042969 32.417969 35.140625 32.28125 35.28125 C 32.28125 35.292969 32.28125 35.300781 32.28125 35.3125 C 32.234375 35.351563 32.195313 35.390625 32.15625 35.4375 C 32.15625 35.449219 32.15625 35.457031 32.15625 35.46875 C 32.132813 35.488281 32.113281 35.507813 32.09375 35.53125 C 32.066406 35.589844 32.046875 35.65625 32.03125 35.71875 C 32.019531 35.75 32.007813 35.78125 32 35.8125 C 32 35.824219 32 35.832031 32 35.84375 C 31.996094 35.894531 31.996094 35.949219 32 36 C 32 37.65625 30.65625 39 29 39 C 27.34375 39 26 37.65625 26 36 C 26 35.96875 26 35.9375 26 35.90625 C 25.996094 35.84375 25.984375 35.78125 25.96875 35.71875 C 25.960938 35.675781 25.949219 35.632813 25.9375 35.59375 C 25.910156 35.539063 25.878906 35.488281 25.84375 35.4375 C 25.695313 35.207031 25.457031 35.050781 25.1875 35 C 25.054688 34.972656 24.914063 34.972656 24.78125 35 C 24.71875 35.015625 24.652344 35.035156 24.59375 35.0625 C 24.539063 35.089844 24.488281 35.121094 24.4375 35.15625 C 24.382813 35.191406 24.328125 35.234375 24.28125 35.28125 C 24.257813 35.3125 24.238281 35.34375 24.21875 35.375 C 24.195313 35.394531 24.175781 35.414063 24.15625 35.4375 C 24.15625 35.449219 24.15625 35.457031 24.15625 35.46875 C 24.082031 35.574219 24.03125 35.6875 24 35.8125 C 23.996094 35.855469 23.996094 35.894531 24 35.9375 C 24 35.957031 24 35.980469 24 36 C 24 37.65625 22.65625 39 21 39 C 19.34375 39 18 37.65625 18 36 C 18 35.96875 18 35.9375 18 35.90625 C 17.996094 35.84375 17.984375 35.78125 17.96875 35.71875 C 17.960938 35.675781 17.949219 35.632813 17.9375 35.59375 C 17.910156 35.539063 17.878906 35.488281 17.84375 35.4375 C 17.695313 35.207031 17.457031 35.050781 17.1875 35 C 17.054688 34.972656 16.914063 34.972656 16.78125 35 C 16.589844 35.042969 16.417969 35.140625 16.28125 35.28125 C 16.257813 35.3125 16.238281 35.34375 16.21875 35.375 C 16.195313 35.394531 16.175781 35.414063 16.15625 35.4375 C 16.15625 35.449219 16.15625 35.457031 16.15625 35.46875 C 16.132813 35.488281 16.113281 35.507813 16.09375 35.53125 C 16.082031 35.5625 16.070313 35.59375 16.0625 35.625 C 16.035156 35.683594 16.015625 35.75 16 35.8125 C 15.996094 35.855469 15.996094 35.894531 16 35.9375 C 16 35.957031 16 35.980469 16 36 C 16 37.65625 14.65625 39 13 39 C 11.34375 39 10 37.65625 10 36 C 10 35.96875 10 35.9375 10 35.90625 C 10 35.875 10 35.84375 10 35.8125 C 9.988281 35.738281 9.964844 35.664063 9.9375 35.59375 C 9.917969 35.570313 9.898438 35.550781 9.875 35.53125 C 9.851563 35.464844 9.820313 35.402344 9.78125 35.34375 C 9.761719 35.320313 9.742188 35.300781 9.71875 35.28125 C 9.6875 35.257813 9.65625 35.238281 9.625 35.21875 C 9.425781 35.042969 9.167969 34.953125 8.90625 34.96875 C 8.863281 34.976563 8.820313 34.988281 8.78125 35 C 8.316406 35.105469 7.988281 35.523438 8 36 C 8 37.65625 6.65625 39 5 39 C 4.191406 39 3.5 38.71875 3 38.21875 L 3 34.5 C 3 31.960938 5.113281 30 7.8125 30 Z M 9 38.96875 C 9.914063 40.1875 11.371094 41 13 41 C 14.628906 41 16.085938 40.1875 17 38.96875 C 17.914063 40.1875 19.371094 41 21 41 C 22.628906 41 24.085938 40.1875 25 38.96875 C 25.914063 40.1875 27.371094 41 29 41 C 30.628906 41 32.085938 40.1875 33 38.96875 C 33.914063 40.1875 35.371094 41 37 41 C 38.628906 41 40.085938 40.1875 41 38.96875 C 41.914063 40.1875 43.371094 41 45 41 C 45.71875 41 46.394531 40.839844 47 40.5625 L 47 48 L 3 48 L 3 40.5625 C 3.625 40.835938 4.292969 41 5 41 C 6.628906 41 8.085938 40.1875 9 38.96875 Z"/></svg>
